X: 1
T: Josefin's Waltz [G]
T: Josefins dopvals
T: Josefin's baptism waltz
C: Roger Tallroth
N: Josefin is Roger's niece, and her name is actually "Johsefin".
Z: John Chambers <jc:trillian.mit.edu>
S: Boston Scottish Fiddle Club Session Tunes p.80 #2
D: V\"asen, "Spirit"
D: Dervish, "At the End of the Day"
M: 3/4
L: 1/4
K: G
z2 \
|: "G"DGA | Bdc | BAG | D2E \
| "C"C>CC | "D7"DFG | A3- |[1 A3 :|[2 A :|
|: Bc \
| "G"dBd | g2f | "C"e3 | "G"d3 \
| "C"ced | c[BG]A | "G"B>cB | "Am"ABc \
| "G"dBd | g2f | "C"e3 | "G/B"d3 |
| "Am"ced | "D7"cBA | "G"B>cB | "D7"ABc \
| "Em"BAG | "(D7)"F2G | "C"G3 | C>DC \
| "G"B,DG | "D7"FEF | "G"G3- | G :|
